assets/svg/tw.svg

<svg width="32" height="32" viewBox="0 0 32 32" fill="none" xmlns="http://www.w3.org/2000/svg">
<path d="M29.333 7.83998C28.333 8.33298 27.333 8.50698 26.16 8.66698C27.333 7.99998 28.16 6.99998 28.493 5.66698C27.488 6.27498 26.317 6.73798 25.07 6.98898L25 7.00098C23.969 5.98698 22.56 5.35498 21.004 5.33398H21C18.16 5.33398 15.667 7.84098 15.667 10.841C15.667 11.334 15.667 11.668 15.84 12.001C11.262 11.823 7.22097 9.66398 4.52897 6.36198L4.50697 6.33398C4.08197 7.05998 3.83097 7.93198 3.83097 8.86298C3.83097 8.97198 3.83397 9.08098 3.84097 9.18898L3.83997 9.17398C3.87397 11.052 4.84897 12.695 6.31297 13.655L6.33397 13.668C5.49397 13.668 4.66697 13.335 3.82697 13.001C3.82697 15.668 5.66697 17.841 8.15997 18.334C7.66697 18.507 7.15997 18.507 6.66697 18.507C6.33397 18.507 5.99997 18.507 5.66697 18.334C6.33397 20.507 8.33397 22.174 10.84 22.174C9.03997 23.629 6.72397 24.509 4.20297 24.509C4.13197 24.509 4.06097 24.508 3.98997 24.507H4.00097H2.66797C5.03297 26.016 7.90397 26.936 10.984 27H11.001C21.001 27 26.508 18.667 26.508 11.493V10.826C27.655 10.036 28.601 9.03898 29.311 7.88198L29.335 7.83998H29.333Z" fill="white"/>
</svg>

<!-- Generated by IcoMoon.io -->
<svg version="1.1" xmlns="http://www.w3.org/2000/svg" width="32" height="32" viewBox="0 0 32 32">
<title>tw</title>
<path fill="#fff" d="M29.333 7.84c-1 0.493-2 0.667-3.173 0.827 1.173-0.667 2-1.667 2.333-3-1.005 0.608-2.176 1.071-3.423 1.322l-0.070 0.012c-1.031-1.014-2.44-1.646-3.996-1.667l-0.004-0c-2.84 0-5.333 2.507-5.333 5.507 0 0.493 0 0.827 0.173 1.16-4.578-0.178-8.619-2.337-11.311-5.639l-0.022-0.028c-0.425 0.726-0.676 1.598-0.676 2.529 0 0.109 0.003 0.218 0.010 0.326l-0.001-0.015c0.034 1.878 1.009 3.521 2.473 4.481l0.021 0.013c-0.84 0-1.667-0.333-2.507-0.667 0 2.667 1.84 4.84 4.333 5.333-0.493 0.173-1 0.173-1.493 0.173-0.333 0-0.667 0-1-0.173 0.667 2.173 2.667 3.84 5.173 3.84-1.8 1.455-4.116 2.335-6.637 2.335-0.071 0-0.142-0.001-0.213-0.002l0.011 0h-1.333c2.365 1.509 5.236 2.429 8.316 2.493l0.017 0c10 0 15.507-8.333 15.507-15.507v-0.667c1.147-0.79 2.093-1.787 2.803-2.944l0.024-0.042z"></path>
</svg>
